X: 1
T: Sl\"ovagubben - polska fr\aan Boda
O: Sweden
R: Boda-polska
S: handwritten MS by John Chambers (1970s)
L: 1/8
%%slurgraces 0
K: G
|: "G"d>g- g2 f>e | e>(d B<G) B>B | "D7"(~BA/)(B/ c>A) F>A |1,3 A>(F "G"G>A) B>c :|2,4 A>F "G"G4 :|
|: "G"B>(c d2) g>a | "D7"g>f- f>{gf}e f2 | "C"A>(B c2) e2 | "G"e>d- d>{ed}^c d2 |
|  "Em"G>(A B2) d2 | "Am"d>c- c>{dc}B c2 | "D7"c>(B A>d) f>a | a>{ba}(f "G"g4) :|
